!!!!SEGMENT: pl-cz--iii-684--002_volckmer-augustin--salve-regina-et-jesum-benedictum.krn
!!!cenid: 17xx:1218
!!!COM: Volckmer, Augustin
!!!COM-rismID: pe30020656
!!!CDT: 1755-~1820
!!!CNT:
!!!OPR: Salve Regina
!!!OTL: Et Jesum benedictum
!!!OMV: 002
!!!PDT:
!!!AGN: Sacred
!!!SMS-siglum: PL-CZ
!!!SMS-shelfmark: III-684
!!!SMS-shelfwork: 001-002 M
!!!SMS-variant:
!!!SMS-altvar:
!!!NIFC-rismSourceID: 300001402
!!!NIFC-rismChildID: 300001402
!!!NIFC-islandoraID: pl-cz:40208
!!!URL-pdf-islandora: https://repozytorium.nifc.pl/islandora/object/pl-cz%3A40208/datastream/PDF/view
!!!URL-scan:
!!!ONB-nifc: UWAGA: części Salve Regina: Salve Regina, Et Jesum benedictum, O clemens o pia
!!!AIN: 1 alto 1 bass 2 clrno 2 oboe 1 organ 1 soprn 1 tenor 1 timpa 1 viola 2 violn
!!!key: D
**kern	**kern	**kern	**kern	**kern	**text	**kern	**text	**kern	**text	**kern	**text	**kern	**kern	**kern	**kern	**kern
*	*group4	*group4	*group4	*group3	*	*group3	*	*group3	*	*group3	*	*	*group2	*group2	*group1	*group1
*part13	*part12	*part11	*part10	*part9	*part9	*part8	*part8	*part7	*part7	*part6	*part6	*part5	*part4	*part3	*part2	*part1
*staff13	*staff12	*staff11	*staff10	*staff9	*staff9	*staff8	*staff8	*staff7	*staff7	*staff6	*staff6	*staff5	*staff4	*staff3	*staff2	*staff1
*I"Organo.	*I"Viola Obligata.	*I"Violino Secondo.	*I"Violino Primo	*I"Baſso.	*	*I"Tenore.	*	*I"Alto.	*	*I"Canto.	*	*I"Tympanis	*I"Clarino Secondo	*I"Clarino Primo	*I"Oboe Secondo	*I"Oboe Primo
*I'org	*I'vla	*I'vl 2	*I'vl 1	*I'B	*	*I'T	*	*I'A	*	*I'S	*	*I'timp	*I'clno 2	*I'clno 1	*I'ob 2	*I'ob 1
*Iorgan	*Iviola	*Ivioln	*Ivioln	*Ibass	*	*Itenor	*	*Ialto	*	*Isoprn	*	*Itimpa	*Iclrno	*Iclrno	*Ioboe	*Ioboe
*ICklav	*ICstr	*ICstr	*ICstr	*ICvox	*	*ICvox	*	*ICvox	*	*ICvox	*	*ICidio	*ICbras	*ICbras	*ICww	*ICww
*clefF4	*clefC3	*clefG2	*clefG2	*clefF4	*	*clefC4	*	*clefC3	*	*clefC1	*	*clefF4	*clefG2	*clefG2	*clefG2	*clefG2
*	*	*	*	*	*	*	*	*	*	*	*	*	*ITrd-1c-2	*ITrd-1c-2	*	*
*k[f#]	*k[f#]	*k[f#]	*k[f#]	*k[f#]	*	*k[f#]	*	*k[f#c#]	*	*k[f#]	*	*k[]	*k[f#c#]	*k[f#c#]	*k[f#]	*k[f#]
*D:	*D:	*D:	*D:	*D:	*	*D:	*	*D:	*	*D:	*	*D:	*D:	*D:	*D:	*D:
*M3/2	*M3/2	*M3/2	*M3/2	*M3/2	*	*M3/2	*	*M3/2	*	*M3/2	*	*M3/2	*M3/2	*M3/2	*M3/2	*M3/2
=1	=1	=1	=1	=1	=1	=1	=1	=1	=1	=1	=1	=1	=1	=1	=1	=1
*	*	*	*	*2\right	*	*2\right	*	*2\right	*	*2\right	*	*	*	*	*	*
!LO:TX:t=P:problem:brak partii w źródle - zgodnie z RISM "other parts missing"	!LO:TX:t=P:problem:brak partii w źródle - zgodnie z RISM "other parts missing"	!LO:TX:t=P:problem:brak partii w źródle - zgodnie z RISM "other parts missing"	!LO:TX:t=P:problem:brak partii w źródle - zgodnie z RISM "other parts missing"	!	!	!LO:TX:a:t=Tarde.	!	!LO:TX:a:t=Tarde	!	!	!	!LO:TX:t=P:problem:brak partii w źródle - zgodnie z RISM "other parts missing"	!LO:TX:t=P:problem:brak partii w źródle - zgodnie z RISM "other parts missing"	!LO:TX:t=P:problem:brak partii w źródle - zgodnie z RISM "other parts missing"	!LO:TX:t=P:problem:brak partii w źródle - zgodnie z RISM "other parts missing"	!LO:TX:t=P:problem:brak partii w źródle - zgodnie z RISM "other parts missing"
1.ryy	1.ryy	1.ryy	1.ryy	2G\	Et	2d\	Et	2g\	Et	2b\	Et	1.ryy	1.ryy	1.ryy	1.ryy	1.ryy
.	.	.	.	2G\	Je-	2d\	Je-	2g\	Je-	2b\	Je-	.	.	.	.	.
.	.	.	.	2G\	-sum	2d\	-sum	2g\	-sum	2b\	-sum	.	.	.	.	.
=2	=2	=2	=2	=2	=2	=2	=2	=2	=2	=2	=2	=2	=2	=2	=2	=2
1.ryy	1.ryy	1.ryy	1.ryy	4G\	be-	4d\	be-	4g\	be-	4b\	be-	1.ryy	1.ryy	1.ryy	1.ryy	1.ryy
.	.	.	.	8G\	.	8d\	.	8g\	.	8b\	.	.	.	.	.	.
.	.	.	.	8G\	.	8d\	.	8g\	.	8b\	.	.	.	.	.	.
.	.	.	.	2D\	-ne-	2d\	-ne-	2b\	-ne-	2dd\	-ne-	.	.	.	.	.
.	.	.	.	2F#\	.	2d\	.	8b\L	.	8dd\L	.	.	.	.	.	.
.	.	.	.	.	.	.	.	8a\	.	8cc\	.	.	.	.	.	.
.	.	.	.	.	.	.	.	8g\	.	8b\	.	.	.	.	.	.
.	.	.	.	.	.	.	.	8a\J	.	8cc\J	.	.	.	.	.	.
=3	=3	=3	=3	=3	=3	=3	=3	=3	=3	=3	=3	=3	=3	=3	=3	=3
1.ryy	1.ryy	1.ryy	1.ryy	2.G\	-dic-	2.d\	-dic-	2.a\	-dic-	2.cc\	-dic-	1.ryy	1.ryy	1.ryy	1.ryy	1.ryy
.	.	.	.	4G\	.	4d\	.	4g\	.	4b\	.	.	.	.	.	.
.	.	.	.	2G\	-tum	2d\	-tum	2g\	-tum.	2b\	-tum	.	.	.	.	.
=4	=4	=4	=4	=4	=4	=4	=4	=4	=4	=4	=4	=4	=4	=4	=4	=4
1.ryy	1.ryy	1.ryy	1.ryy	00.r	.	00.r	.	00.r	.	00.r	.	1.ryy	1.ryy	1.ryy	1.ryy	1.ryy
=5	=5	=5	=5	=5	=5	=5	=5	=5	=5	=5	=5	=5	=5	=5	=5	=5
1.ryy	1.ryy	1.ryy	1.ryy	.	.	.	.	.	.	.	.	1.ryy	1.ryy	1.ryy	1.ryy	1.ryy
=6	=6	=6	=6	=6	=6	=6	=6	=6	=6	=6	=6	=6	=6	=6	=6	=6
1.ryy	1.ryy	1.ryy	1.ryy	.	.	.	.	.	.	.	.	1.ryy	1.ryy	1.ryy	1.ryy	1.ryy
=7	=7	=7	=7	=7	=7	=7	=7	=7	=7	=7	=7	=7	=7	=7	=7	=7
1.ryy	1.ryy	1.ryy	1.ryy	.	.	.	.	.	.	.	.	1.ryy	1.ryy	1.ryy	1.ryy	1.ryy
=8	=8	=8	=8	=8	=8	=8	=8	=8	=8	=8	=8	=8	=8	=8	=8	=8
1.ryy	1.ryy	1.ryy	1.ryy	2G\	fru-	2d\	fru-	2g\	fru-	2b\	fru-	1.ryy	1.ryy	1.ryy	1.ryy	1.ryy
.	.	.	.	2G\	-ctum	2d\	-ctum	2g\	-ctum	2b\	-ctum	.	.	.	.	.
.	.	.	.	2G\	ven-	2d\	ven-	2g\	ven-	2b\	ven-	.	.	.	.	.
=9	=9	=9	=9	=9	=9	=9	=9	=9	=9	=9	=9	=9	=9	=9	=9	=9
1.ryy	1.ryy	1.ryy	1.ryy	4G\	.	4d\	[[-tris]]	4g\	.	4b\	.	1.ryy	1.ryy	1.ryy	1.ryy	1.ryy
.	.	.	.	8G\	.	8d\	.	8g\	.	8b\	.	.	.	.	.	.
.	.	.	.	8G\	.	8d\	.	8g\	.	8b\	.	.	.	.	.	.
.	.	.	.	2D\	-tris	2d\	-tris-	2b\	-tris	2dd\	-tris	.	.	.	.	.
.	.	.	.	2F#\	.	2d\	.	8b\L	.	8dd\L	.	.	.	.	.	.
.	.	.	.	.	.	.	.	8a\	.	8cc\	.	.	.	.	.	.
.	.	.	.	.	.	.	.	8g\	.	8b\	.	.	.	.	.	.
.	.	.	.	.	.	.	.	8a\J	.	8cc\J	.	.	.	.	.	.
!	!	!	!	!LO:LB:g=original	!	!LO:LB:g=original	!	!LO:LB:g=original	!	!LO:LB:g=original	!	!	!	!	!	!
=10	=10	=10	=10	=10	=10	=10	=10	=10	=10	=10	=10	=10	=10	=10	=10	=10
1.ryy	1.ryy	1.ryy	1.ryy	2.G\	tu-	2.d\	-tu-	2.a\	tu-	2.cc\	tu-	1.ryy	1.ryy	1.ryy	1.ryy	1.ryy
.	.	.	.	4G\	.	4d\	.	4g\	.	4b\	.	.	.	.	.	.
.	.	.	.	2G\	-i	2d\	-i.	2g\	-i	2b\	-i	.	.	.	.	.
=11	=11	=11	=11	=11	=11	=11	=11	=11	=11	=11	=11	=11	=11	=11	=11	=11
1.ryy	1.ryy	1.ryy	1.ryy	00.r	.	00.r	.	00.r	.	00.r	.	1.ryy	1.ryy	1.ryy	1.ryy	1.ryy
=12	=12	=12	=12	=12	=12	=12	=12	=12	=12	=12	=12	=12	=12	=12	=12	=12
1.ryy	1.ryy	1.ryy	1.ryy	.	.	.	.	.	.	.	.	1.ryy	1.ryy	1.ryy	1.ryy	1.ryy
=13	=13	=13	=13	=13	=13	=13	=13	=13	=13	=13	=13	=13	=13	=13	=13	=13
1.ryy	1.ryy	1.ryy	1.ryy	.	.	.	.	.	.	.	.	1.ryy	1.ryy	1.ryy	1.ryy	1.ryy
=14	=14	=14	=14	=14	=14	=14	=14	=14	=14	=14	=14	=14	=14	=14	=14	=14
1.ryy	1.ryy	1.ryy	1.ryy	.	.	.	.	.	.	.	.	1.ryy	1.ryy	1.ryy	1.ryy	1.ryy
=15	=15	=15	=15	=15	=15	=15	=15	=15	=15	=15	=15	=15	=15	=15	=15	=15
1.ryy	1.ryy	1.ryy	1.ryy	2G\	no-	2d\	no-	2g\	no-	2b\	no-	1.ryy	1.ryy	1.ryy	1.ryy	1.ryy
.	.	.	.	2G\	-bis	2d\	-bis	2g\	-bis	2b\	-bis	.	.	.	.	.
.	.	.	.	2G\	post	2d\	post	2g\	post	2b\	post	.	.	.	.	.
=16	=16	=16	=16	=16	=16	=16	=16	=16	=16	=16	=16	=16	=16	=16	=16	=16
1.ryy	1.ryy	1.ryy	1.ryy	4G\	hoc	4d\	hoc	4g\	hoc	4b\	hoc	1.ryy	1.ryy	1.ryy	1.ryy	1.ryy
.	.	.	.	8G\	.	8d\	.	8g\	.	8b\	.	.	.	.	.	.
.	.	.	.	8G\	.	8d\	.	8g\	.	8b\	.	.	.	.	.	.
.	.	.	.	2D\	E-	2d\	e-	2b\	e-	2dd\	e-	.	.	.	.	.
.	.	.	.	2F#\	.	2d\	.	8b\L	.	8dd\L	.	.	.	.	.	.
.	.	.	.	.	.	.	.	8a\	.	8cc\	.	.	.	.	.	.
.	.	.	.	.	.	.	.	8g\	.	8b\	.	.	.	.	.	.
.	.	.	.	.	.	.	.	8a\J	.	8cc\J	.	.	.	.	.	.
=17	=17	=17	=17	=17	=17	=17	=17	=17	=17	=17	=17	=17	=17	=17	=17	=17
1.ryy	1.ryy	1.ryy	1.ryy	2.G\	-xi-	2.d\	-xi-	2.a\	-xi-	2.cc\	-xi-	1.ryy	1.ryy	1.ryy	1.ryy	1.ryy
.	.	.	.	4G\	-li-	4d\	-li-	4g\	-li-	4b\	-li-	.	.	.	.	.
.	.	.	.	2G\	-um	2d\	-um.	2g\	-um	2b\	-um	.	.	.	.	.
=18	=18	=18	=18	=18	=18	=18	=18	=18	=18	=18	=18	=18	=18	=18	=18	=18
1.ryy	1.ryy	1.ryy	1.ryy	2r	.	2r	.	2r	.	2r	.	1.ryy	1.ryy	1.ryy	1.ryy	1.ryy
.	.	.	.	2r	.	2r	.	2r	.	2r	.	.	.	.	.	.
.	.	.	.	2G\	O.-	2e\	o-	2a\	O-	2cc#X\	o-	.	.	.	.	.
!	!	!	!	!LO:LB:g=original	!	!LO:LB:g=original	!	!	!	!LO:LB:g=original	!	!	!	!	!	!
=19	=19	=19	=19	=19	=19	=19	=19	=19	=19	=19	=19	=19	=19	=19	=19	=19
!	!	!	!	!LO:SIC:v:s=2F#	!	!	!	!	!	!	!	!	!	!	!	!
1.ryy	1.ryy	1.ryy	1.ryy	2G\	-sten-	2f#\	-sten-	2.a\	-sten-	2dd\	-sten-	1.ryy	1.ryy	1.ryy	1.ryy	1.ryy
.	.	.	.	4C#X/	.	4c#X\	.	.	.	4ee\	.	.	.	.	.	.
.	.	.	.	4C#/	.	4c#\	.	4a\	.	4ee\	.	.	.	.	.	.
.	.	.	.	2D/	-de	2d\	-de	2a\	-de	2ff#\	-de	.	.	.	.	.
=20	=20	=20	=20	=20	=20	=20	=20	=20	=20	=20	=20	=20	=20	=20	=20	=20
1.ryy	1.ryy	1.ryy	1.ryy	1.r	.	1.r	.	1.r	.	1.r	.	1.ryy	1.ryy	1.ryy	1.ryy	1.ryy
!	!	!	!	!	!	!	!	!LO:LB:g=original	!	!	!	!	!	!	!	!
=21	=21	=21	=21	=21	=21	=21	=21	=21	=21	=21	=21	=21	=21	=21	=21	=21
1.ryy	1.ryy	1.ryy	1.ryy	2D\	o	2d\	o	2a\	o	2ff#\	O	1.ryy	1.ryy	1.ryy	1.ryy	1.ryy
.	.	.	.	2D\	cle-	2d\	cle-	2a\	cle-	2ff#\	Cle-	.	.	.	.	.
.	.	.	.	2D\	-mens	2d\	-mens	2a\	-mens	2ff#\	-mens	.	.	.	.	.
=22	=22	=22	=22	=22	=22	=22	=22	=22	=22	=22	=22	=22	=22	=22	=22	=22
1.ryy	1.ryy	1.ryy	1.ryy	1C#X	o-	1e	o	1a	o	1gg	o	1.ryy	1.ryy	1.ryy	1.ryy	1.ryy
.	.	.	.	4D\	.	2d\	.	2a\	.	4ff#\	.	.	.	.	.	.
.	.	.	.	4F#\	.	.	.	.	.	4dd\	.	.	.	.	.	.
=23	=23	=23	=23	=23	=23	=23	=23	=23	=23	=23	=23	=23	=23	=23	=23	=23
1.ryy	1.ryy	1.ryy	1.ryy	2G\	-pi-	1d	pi-	1b	pi-	1.ee	pi-	1.ryy	1.ryy	1.ryy	1.ryy	1.ryy
.	.	.	.	2E\	.	.	.	.	.	.	.	.	.	.	.	.
.	.	.	.	2A\	.	2c#X\	.	2a\	.	.	.	.	.	.	.	.
=24	=24	=24	=24	=24	=24	=24	=24	=24	=24	=24	=24	=24	=24	=24	=24	=24
1.ryy	1.ryy	1.ryy	1.ryy	2D\	-a.	2d\	-a.	2a\	-a.	2ff#\	-a	1.ryy	1.ryy	1.ryy	1.ryy	1.ryy
.	.	.	.	2r	.	2r	.	2r	.	2r	.	.	.	.	.	.
.	.	.	.	2r	.	2r	.	2r	.	2r	.	.	.	.	.	.
=25	=25	=25	=25	=25	=25	=25	=25	=25	=25	=25	=25	=25	=25	=25	=25	=25
1.ryy	1.ryy	1.ryy	1.ryy	00.r	.	00.r	.	00.r	.	00.r	.	1.ryy	1.ryy	1.ryy	1.ryy	1.ryy
=26	=26	=26	=26	=26	=26	=26	=26	=26	=26	=26	=26	=26	=26	=26	=26	=26
1.ryy	1.ryy	1.ryy	1.ryy	.	.	.	.	.	.	.	.	1.ryy	1.ryy	1.ryy	1.ryy	1.ryy
=27	=27	=27	=27	=27	=27	=27	=27	=27	=27	=27	=27	=27	=27	=27	=27	=27
1.ryy	1.ryy	1.ryy	1.ryy	.	.	.	.	.	.	.	.	1.ryy	1.ryy	1.ryy	1.ryy	1.ryy
=28	=28	=28	=28	=28	=28	=28	=28	=28	=28	=28	=28	=28	=28	=28	=28	=28
1.ryy	1.ryy	1.ryy	1.ryy	.	.	.	.	.	.	.	.	1.ryy	1.ryy	1.ryy	1.ryy	1.ryy
=29	=29	=29	=29	=29	=29	=29	=29	=29	=29	=29	=29	=29	=29	=29	=29	=29
1.ryy	1.ryy	1.ryy	1.ryy	1.r	.	1.r	.	1.r	.	1.r	.	1.ryy	1.ryy	1.ryy	1.ryy	1.ryy
==	==	==	==	==	==	==	==	==	==	==	==	==	==	==	==	==
*-	*-	*-	*-	*-	*-	*-	*-	*-	*-	*-	*-	*-	*-	*-	*-	*-
!!!system-decoration: [(s1,s2)][(s3,s4)][(s5)][(s6,s7,s8,s9)][(s10,s11,s12)]s13
!!!ENC: Andrzej Borzym
!!!END: 2020-11-09
!!!ENC: Marta Lawrence
!!!END: 2022-04-19
!!!YEC: Copyright 2022 Narodowy Instytut Fryderyka Chopina (https://polishscores.org)
!!!YEM: License CC-BY-4.0 (https://creativecommons.org/licenses/by/4.0)
